**kern	**kern	**dynam
*part1	*part1	*part1
*staff2	*staff1	*
*I"Piano	*	*
*clefF4	*clefG2	*
*k[b-e-a-]	*k[b-e-a-]	*
=1	=1	=1
4C-X 4G-X	4c-X 4e- 4g-X	.
8C-L 8G-	8c-L 8e- 8g-	.
8C-J 8G-	8c-J 8e- 8g-	.
=	=	=
4C-X 4G-X	4c-X 4e- 4g-X	.
8C-L 8G-	8c-L 8e- 8g-	.
8C-J 8G-	8B-J 8d-X 8g-	.
=	=	=
4C-X 4G-X	4c-X 4e- 4g-X	.
8C-L 8G-	8c-L 8e- 8g-	.
8C-J 8G-	8c-J 8e- 8g-	.
=	=	=
*	*^	*
4C-X 4E-	4g-X	8G-XL	.
.	.	8c-X	.
8C-L 8G-X	8g-L	8e-	.
8C-J 8G-	8g-J	8B-J 8d-X	.
*	*v	*v	*
=	=	=
4C-X 4G-X	4c-X 4e- 4g-X	.
8C-L 8G-	8c-L 8e- 8g-	.
8C-J 8G-	8c-J 8e- 8g-	.
=	=	=
4C-X 4G-X	4c-X 4e- 4g-X	<
8C-L 8G-	8c-L 8e- 8g-	.
8GGJ 8E- 8Gn	8B-J 8e- 8gn	.
=	=	=
4GG 4E- 4G	4B- 4e- 4g	[ fp >
8BB-L 8E- 8G	8B-L 8e- 8g	.
8BB-J 8E- 8G	8B-J 8e- 8g	]
=	=	=
*-	*-	*-
!!!system-decoration: {(s1,s2)}
